X:490
T:Man Tiger,The. (p)1702.PLFD.490
M:4/4
L:1/4
Q:1/2=100
S:Playford, Dancing Master,Supp.to 11th Ed.,1702.
O:England
Z:Chris Partington.
K:A
f/g/|aA2e|cA2f/g/|afba|g3f/g/|
aA2e|c>deb/a/|gef^d|e3:|
|:B/c/|dddfe|c2B/c/|d/c/B/A/ B/c/d|G3f/g/|
aA2e|f>e f/g/a|GABG|A3:|
